images/svg/foobar2000.svg

<svg xmlns="http://www.w3.org/2000/svg"
aria-label="foobar2000" role="img"
viewBox="0 0 512 512"><rect
width="512" height="512"
rx="15%"
fill="#1B1817"/><path fill="#fff" d="M256 473.5S221 445 186 408c-27.5-29-54-64.5-68-92-31.5-62.5-13-137 59-257l54 74s12-2 25-2.1c13 .1 25 2.1 25 2.1l54-74c72 120 90.5 194.5 59 257-14 27.5-40.5 63-68 92-35 37-70 65.5-70 65.5z"/><path d="M139.78 210.7c-26.04-.04-17.81 38.02-13.28 49.8 9 24 28 55 67.5 69 35 11.5 41-18 26-50.5-13.5-28.5-39.5-59-71-67a36.9 36.9 0 0 0-9.22-1.3zm232.44 0c-2.7 0-5.75.4-9.22 1.3-31.5 8-57.5 38.5-71 67-15 32.5-9 62 26 50.5 39.5-14 58.5-45 67.5-69 4.53-11.78 12.76-49.84-13.28-49.8zM256 353.24c-3 0-6 1.25-8 3.75l-38 43c-2 2-3 6 0 8 6 3 9 2 13-2l33-35 33 35c4 4 7 5 13 2 3-2 2-6 0-8l-38-43c-2-2.5-5-3.75-8-3.75z"/></svg>

<svg xmlns="http://www.w3.org/2000/svg"
aria-label="foobar2000" role="img"
viewBox="0 0 512 512"><rect
width="512" height="512"
rx="15%"
fill="#1B1817"/><path fill="#fff" d="M256 473.5C256 473.5 221 445 186 408C158.5 379 132 343.5 118 316C86.5 253.5 105 179 177 59L231 133C231 133 243 131 256 130.9C269 131 281 133 281 133L335 59C407 179 425.5 253.5 394 316C380 343.5 353.5 379 326 408C291 445 256 473.5 256 473.5Z"/><path fill="#000" d="M149 212C180.5 220 206.5 250.5 220 279C235 311.5 229 341 194 329.5C154.5 315.5 135.5 284.5 126.5 260.5C121.5 247.5 112 202.5 149 212Z"/><path fill="#000" d="M363 212C331.5 220 305.5 250.5 292 279C277 311.5 283 341 318 329.5C357.5 315.5 376.5 284.5 385.5 260.5C390.5 247.5 400 202.5 363 212Z"/><path fill="#000" d="M256 371L223 406C219 410 216 411 210 408C207 406 208 402 210 400L248 357C252 352 260 352 264 357L302 400C304 402 305 406 302 408C296 411 293 410 289 406Z"/></svg>
